gama.ui.shared/icons_svg/light/generic/menu.saveas.svg

<svg height="25" viewBox="-310.774 -3167.932 25 25" width="25" xmlns="http://www.w3.org/2000/svg"><g fill="none"><path d="m-306.4341-3167.4315h16.32c2.12077 0 3.84 1.7192 3.84 3.84v16.32c0 2.1208-1.71923 3.84-3.84 3.84h-16.32c-2.12077 0-3.84-1.7192-3.84-3.84v-16.32c0-2.1208 1.71923-3.84 3.84-3.84z" fill="#fff"/><path d="m-306.4341-3167.4315h16.32c2.12077 0 3.84 1.7192 3.84 3.84v16.32c0 2.1208-1.71923 3.84-3.84 3.84h-16.32c-2.12077 0-3.84-1.7192-3.84-3.84v-16.32c0-2.1208 1.71923-3.84 3.84-3.84z" stroke="#000" stroke-linecap="round" stroke-linejoin="round" stroke-width=".25"/><g fill="#5c76a2"><path d="m-304.2742-3152.232c.2209 0 .39998.179.39998.4v2.4006c0 .6627.53722 1.1999 1.19994 1.1999h8.79956c.66272 0 1.19994-.5372 1.19994-1.1999v-9.9996h-2.79986c-.2209 0-.39998-.179-.39998-.4v-2.7997h-6.79966c-.66272 0-1.19994.5372-1.19994 1.1999v1.5991c0 .2209-.17908.4-.39998.4s-.39998-.1791-.39998-.4v-1.5991c0-1.1045.89538-1.9999 1.9999-1.9999h7.17726c.10619-.0067.21672.0287.30522.1171l3.19983 3.1999c.08847.0885.12387.199.11715.3052v10.3771c0 1.1044-.89538 1.9999-1.9999 1.9999h-8.79956c-1.10452 0-1.9999-.8955-1.9999-1.9999v-2.4006c0-.221.17908-.4.39998-.4zm9.19954-9.833v1.834h1.83422zm-2.96554 5.833-1.71707-1.717c-.1562-.156-.1562-.4094 0-.5656s.40947-.1562.56567 0l2.39987 2.3999c.1562.1562.1562.4094 0 .5657l-2.39987 2.4c-.1562.156-.40947.156-.56567 0-.1562-.1564-.1562-.4096 0-.566l1.71707-1.717h-6.234c-.2209 0-.39998-.179-.39998-.4 0-.2208.17908-.4.39998-.4z"/><path d="m-295.50327-3150.259c0-.1093-.08861-.198-.19793-.198h-.3958c-.10932 0-.19793.0887-.19793.198v.3958c0 .1092.08861.1979.19793.1979h.3958c.10932 0 .19793-.0887.19793-.1979zm.39584 0v.3958c0 .3279-.26583.5938-.59377.5938h-.3958c-.32794 0-.59377-.2659-.59377-.5938v-.3958c0-.328.26583-.5938.59377-.5938h.3958c.32794 0 .59377.2658.59377.5938zm-2.77084 0c0-.1093-.08861-.198-.19793-.198h-.3958c-.10932 0-.19793.0887-.19793.198v.3958c0 .1092.08861.1979.19793.1979h.3958c.10932 0 .19793-.0887.19793-.1979zm.39584 0v.3958c0 .3279-.26583.5938-.59377.5938h-.3958c-.32794 0-.59377-.2659-.59377-.5938v-.3958c0-.328.26583-.5938.59377-.5938h.3958c.32794 0 .59377.2658.59377.5938zm-2.77084 0c0-.1093-.08861-.198-.19793-.198h-.3958c-.10932 0-.19793.0887-.19793.198v.3958c0 .1092.08861.1979.19793.1979h.3958c.10932 0 .19793-.0887.19793-.1979zm.39584 0v.3958c0 .3279-.26583.5938-.59377.5938h-.3958c-.32794 0-.59377-.2659-.59377-.5938v-.3958c0-.328.26583-.5938.59377-.5938h.3958c.32794 0 .59377.2658.59377.5938z"/></g></g></svg>

<?xml version="1.0" encoding="UTF-8" standalone="no"?>
<!DOCTYPE svg PUBLIC "-//W3C//DTD SVG 1.1//EN" "http://www.w3.org/Graphics/SVG/1.1/DTD/svg11.dtd">
<svg xmlns:dc="http://purl.org/dc/elements/1.1/" xmlns:xl="http://www.w3.org/1999/xlink" version="1.1" xmlns="http://www.w3.org/2000/svg" viewBox="-310.7741 -3167.9315 25 25" width="25" height="25">
  <defs/>
  <g id="SOURCES" stroke-dasharray="none" stroke="none" stroke-opacity="1" fill="none" fill-opacity="1">
    <title>SOURCES</title>
    <g id="SOURCES_New">
      <title>New</title>
      <g id="Graphic_6614">
        <title>views/view.other</title>
        <path d="M -306.4341 -3167.4315 L -290.1141 -3167.4315 C -287.99333 -3167.4315 -286.2741 -3165.7123 -286.2741 -3163.5915 L -286.2741 -3147.2715 C -286.2741 -3145.1507 -287.99333 -3143.4315 -290.1141 -3143.4315 L -306.4341 -3143.4315 C -308.55487 -3143.4315 -310.2741 -3145.1507 -310.2741 -3147.2715 L -310.2741 -3163.5915 C -310.2741 -3165.7123 -308.55487 -3167.4315 -306.4341 -3167.4315 Z" fill="white"/>
        <path d="M -306.4341 -3167.4315 L -290.1141 -3167.4315 C -287.99333 -3167.4315 -286.2741 -3165.7123 -286.2741 -3163.5915 L -286.2741 -3147.2715 C -286.2741 -3145.1507 -287.99333 -3143.4315 -290.1141 -3143.4315 L -306.4341 -3143.4315 C -308.55487 -3143.4315 -310.2741 -3145.1507 -310.2741 -3147.2715 L -310.2741 -3163.5915 C -310.2741 -3165.7123 -308.55487 -3167.4315 -306.4341 -3167.4315 Z" stroke="black" stroke-linecap="round" stroke-linejoin="round" stroke-width=".25"/>
      </g>
      <g id="Graphic_6613">
        <path d="M -304.2742 -3152.232 C -304.0533 -3152.232 -303.87422 -3152.053 -303.87422 -3151.832 L -303.87422 -3149.4314 C -303.87422 -3148.7687 -303.337 -3148.2315 -302.67428 -3148.2315 L -293.87472 -3148.2315 C -293.212 -3148.2315 -292.67478 -3148.7687 -292.67478 -3149.4314 L -292.67478 -3159.431 L -295.47464 -3159.431 C -295.69554 -3159.431 -295.87462 -3159.61 -295.87462 -3159.831 L -295.87462 -3162.6307 L -302.67428 -3162.6307 C -303.337 -3162.6307 -303.87422 -3162.0935 -303.87422 -3161.4308 L -303.87422 -3159.8317 C -303.87422 -3159.6108 -304.0533 -3159.4317 -304.2742 -3159.4317 C -304.4951 -3159.4317 -304.67418 -3159.6108 -304.67418 -3159.8317 L -304.67418 -3161.4308 C -304.67418 -3162.5353 -303.7788 -3163.4307 -302.67428 -3163.4307 L -295.49702 -3163.4307 C -295.39083 -3163.4374 -295.2803 -3163.402 -295.1918 -3163.3136 L -291.99197 -3160.1137 C -291.9035 -3160.0252 -291.8681 -3159.9147 -291.87482 -3159.8085 L -291.87482 -3149.4314 C -291.87482 -3148.327 -292.7702 -3147.4315 -293.87472 -3147.4315 L -302.67428 -3147.4315 C -303.7788 -3147.4315 -304.67418 -3148.327 -304.67418 -3149.4314 L -304.67418 -3151.832 C -304.67418 -3152.053 -304.4951 -3152.232 -304.2742 -3152.232 Z M -295.07466 -3162.065 L -295.07466 -3160.231 L -293.24044 -3160.231 Z M -298.0402 -3156.232 L -299.75727 -3157.949 C -299.91347 -3158.105 -299.91347 -3158.3584 -299.75727 -3158.5146 C -299.60107 -3158.6708 -299.3478 -3158.6708 -299.1916 -3158.5146 L -296.79173 -3156.1147 C -296.63553 -3155.9585 -296.63553 -3155.7053 -296.79173 -3155.549 L -299.1916 -3153.149 C -299.3478 -3152.993 -299.60107 -3152.993 -299.75727 -3153.149 C -299.91347 -3153.3054 -299.91347 -3153.5586 -299.75727 -3153.715 L -298.0402 -3155.432 L -304.2742 -3155.432 C -304.4951 -3155.432 -304.67418 -3155.611 -304.67418 -3155.832 C -304.67418 -3156.0528 -304.4951 -3156.232 -304.2742 -3156.232 Z" fill="#5c76a2"/>
      </g>
      <g id="Graphic_6607">
        <path d="M -295.50327 -3150.259 C -295.50327 -3150.3683 -295.59188 -3150.457 -295.7012 -3150.457 L -296.097 -3150.457 C -296.20632 -3150.457 -296.29493 -3150.3683 -296.29493 -3150.259 L -296.29493 -3149.8632 C -296.29493 -3149.754 -296.20632 -3149.6653 -296.097 -3149.6653 L -295.7012 -3149.6653 C -295.59188 -3149.6653 -295.50327 -3149.754 -295.50327 -3149.8632 Z M -295.10743 -3150.259 L -295.10743 -3149.8632 C -295.10743 -3149.5353 -295.37326 -3149.2694 -295.7012 -3149.2694 L -296.097 -3149.2694 C -296.42494 -3149.2694 -296.69077 -3149.5353 -296.69077 -3149.8632 L -296.69077 -3150.259 C -296.69077 -3150.587 -296.42494 -3150.8528 -296.097 -3150.8528 L -295.7012 -3150.8528 C -295.37326 -3150.8528 -295.10743 -3150.587 -295.10743 -3150.259 Z M -297.87827 -3150.259 C -297.87827 -3150.3683 -297.96688 -3150.457 -298.0762 -3150.457 L -298.472 -3150.457 C -298.58132 -3150.457 -298.66993 -3150.3683 -298.66993 -3150.259 L -298.66993 -3149.8632 C -298.66993 -3149.754 -298.58132 -3149.6653 -298.472 -3149.6653 L -298.0762 -3149.6653 C -297.96688 -3149.6653 -297.87827 -3149.754 -297.87827 -3149.8632 Z M -297.48243 -3150.259 L -297.48243 -3149.8632 C -297.48243 -3149.5353 -297.74826 -3149.2694 -298.0762 -3149.2694 L -298.472 -3149.2694 C -298.79994 -3149.2694 -299.06577 -3149.5353 -299.06577 -3149.8632 L -299.06577 -3150.259 C -299.06577 -3150.587 -298.79994 -3150.8528 -298.472 -3150.8528 L -298.0762 -3150.8528 C -297.74826 -3150.8528 -297.48243 -3150.587 -297.48243 -3150.259 Z M -300.25327 -3150.259 C -300.25327 -3150.3683 -300.34188 -3150.457 -300.4512 -3150.457 L -300.847 -3150.457 C -300.95632 -3150.457 -301.04493 -3150.3683 -301.04493 -3150.259 L -301.04493 -3149.8632 C -301.04493 -3149.754 -300.95632 -3149.6653 -300.847 -3149.6653 L -300.4512 -3149.6653 C -300.34188 -3149.6653 -300.25327 -3149.754 -300.25327 -3149.8632 Z M -299.85743 -3150.259 L -299.85743 -3149.8632 C -299.85743 -3149.5353 -300.12326 -3149.2694 -300.4512 -3149.2694 L -300.847 -3149.2694 C -301.17494 -3149.2694 -301.44077 -3149.5353 -301.44077 -3149.8632 L -301.44077 -3150.259 C -301.44077 -3150.587 -301.17494 -3150.8528 -300.847 -3150.8528 L -300.4512 -3150.8528 C -300.12326 -3150.8528 -299.85743 -3150.587 -299.85743 -3150.259 Z" fill="#5c76a2"/>
      </g>
    </g>
  </g>
</svg>
